X:632
T:Bluebell Polka
O:england
N:Composite version which may be roughly what is pllayed locally.
M:4/4
L:1/8
K:G
|: (3Bdg|b2b2gfge|d2d2B2G2|FGAB c2e2|
ed^cd B2 (3Bdg|b2b2gfge|d2d2B2G2|FGAB cdef|
g2g2g2:|
|:
K:D
B2|A2A2FAdf|a2a2f2f2|a2^g2=g2e2|
b2a2^g2a2|A2A2FAdf|a2a2f3f|a2^g2=g2e2|
d2f2d2:|
|:
K:G
A2|B2B2Bc d2|B2B2Bc d2|c2cd cB A2|
c2cd cB A2|B2B2Bc d2|B2B2Bc d2|c2cd cB A2|
G2B2G2:|


